public/assets/images/icons/black/move_up/studygroup.svg

<svg width="16" height="16" xmlns="http://www.w3.org/2000/svg" viewBox="0 0 16 16" shape-rendering="geometricPrecision"><defs><mask id="a"><rect fill="#fff" width="100%" height="100%"/><path d="M12.892-.396l-4.507 4.51 2.471 2.471 2.038-2.036 2.037 2.035 2.473-2.47z"/></mask></defs><path fill="#cb1800" d="M12.894 3.136l2.037 2.035 1.058-1.057-3.097-3.096-3.093 3.096 1.057 1.057z"/><g mask="url(#a)"><path d="M8 5.2a2.8 2.8 0 0 1 .024 5.598v1.401A4.2 4.2 0 0 0 8 3.801a4.2 4.2 0 0 0-4.201 4.201v.009h1.4l-.001-.009A2.803 2.803 0 0 1 8 5.2zM8 .998A7.002 7.002 0 0 0 .999 8.002v.009H2.4v-.009a5.601 5.601 0 1 1 5.625 5.599v1.401A7.003 7.003 0 0 0 8 .998z"/><circle cx="4.599" cy="11.22" r="2.105"/></g></svg>

<svg width="16" height="16" xmlns="http://www.w3.org/2000/svg" viewBox="0 0 16 16" shape-rendering="geometricPrecision"><defs><mask id="a"><rect fill="#fff" width="100%" height="100%"/><path d="M12.892-.396l-4.507 4.51 2.47 2.47 2.04-2.035 2.036 2.034 2.474-2.47z"/></mask></defs><path fill="#cb1800" d="M12.894 3.136L14.93 5.17l1.06-1.056-3.098-3.096L9.8 4.114l1.056 1.057"/><g mask="url(#a)"><path d="M8 5.2c1.547 0 2.8 1.254 2.8 2.802 0 1.537-1.24 2.783-2.776 2.796v1.4c2.31-.012 4.177-1.887 4.177-4.196 0-2.32-1.88-4.2-4.2-4.2S3.8 5.68 3.8 8v.01h1.4L5.197 8C5.198 6.454 6.453 5.2 8 5.2zM8 .998c-3.867 0-7 3.135-7 7.004v.01h1.4V8C2.4 4.907 4.907 2.4 8 2.4c3.094 0 5.602 2.507 5.602 5.602 0 3.083-2.495 5.586-5.577 5.6V15c3.855-.014 6.978-3.143 6.978-7 0-3.87-3.136-7.004-7.003-7.004z"/><circle cx="4.598" cy="11.221" r="2.106"/></g></svg>
